X: 567
T: Absent-minded Woman, The
R: reel
M: 4/4
K: Gmajor
|:G2 GA BABd|edgd edBA|GFGA ~B3d|(3efg dB AGEF|
~G3A BA (3Bcd|edgd e2 ge|dega bage|1 dBAB G2 (3DEF:|2 dBAB G3e||
|:g2 bg agbg|g/g/g bg aged|g2 bg agbg|gedB AGED|
g2 bg agbg|g/g/g bg aged|gfgd (3efg dB|1 AGAB G3e:|2 AGAB G2 (3DEF||

